X:1275
T:Anatomie Vivante
A:Wyresdale, Lancashire
B:E and J Winder, 1835-41
L:1/8
M:6/8
O:England
Z:Richard Robinson 
%%TUNEURL: http://www.leeds.ac.uk/music/Info/RRTuneBk/gettune/00001198.html
%%ID:00001198
K:Bb
FGF   | (d2c) (d2c) | B2d  (FG)F | (e2d) (e2d) | c2f \
(FG)F |  d2c   B2A  | G2=B  cde  | dcB    BcA  | B3 ||
(cd)c  | a2g f2=e | f2c cdc | a2g f2=e | f2z \
(f=e)d | c2c (dc)B | A2A (cB)A | Bdc BAG | F2F !D.C.! :|
